images/3233641.svg

<?xml version="1.0" encoding="UTF-8"?>
<svg xmlns="http://www.w3.org/2000/svg" xmlns:xlink="http://www.w3.org/1999/xlink" width="300pt" height="300pt" viewBox="0 0 300 300" version="1.1">
<defs>
<g>
<symbol overflow="visible" id="glyph0-0">
<path style="stroke:none;" d="M 0.453125 1.59375 L 0.453125 -6.34375 L 4.953125 -6.34375 L 4.953125 1.59375 Z M 0.953125 1.09375 L 4.453125 1.09375 L 4.453125 -5.84375 L 0.953125 -5.84375 Z M 0.953125 1.09375 "/>
</symbol>
<symbol overflow="visible" id="glyph0-1">
<path style="stroke:none;" d="M 0.890625 -6.5625 L 2.078125 -6.5625 L 4.984375 -1.078125 L 4.984375 -6.5625 L 5.84375 -6.5625 L 5.84375 0 L 4.65625 0 L 1.75 -5.484375 L 1.75 0 L 0.890625 0 Z M 0.890625 -6.5625 "/>
</symbol>
<symbol overflow="visible" id="glyph0-2">
<path style="stroke:none;" d="M 3.546875 -5.953125 C 2.898438 -5.953125 2.382812 -5.710938 2 -5.234375 C 1.625 -4.753906 1.4375 -4.101562 1.4375 -3.28125 C 1.4375 -2.445312 1.625 -1.789062 2 -1.3125 C 2.382812 -0.832031 2.898438 -0.59375 3.546875 -0.59375 C 4.191406 -0.59375 4.703125 -0.832031 5.078125 -1.3125 C 5.453125 -1.789062 5.640625 -2.445312 5.640625 -3.28125 C 5.640625 -4.101562 5.453125 -4.753906 5.078125 -5.234375 C 4.703125 -5.710938 4.191406 -5.953125 3.546875 -5.953125 Z M 3.546875 -6.6875 C 4.460938 -6.6875 5.195312 -6.375 5.75 -5.75 C 6.300781 -5.132812 6.578125 -4.3125 6.578125 -3.28125 C 6.578125 -2.238281 6.300781 -1.410156 5.75 -0.796875 C 5.195312 -0.179688 4.460938 0.125 3.546875 0.125 C 2.617188 0.125 1.878906 -0.179688 1.328125 -0.796875 C 0.773438 -1.410156 0.5 -2.238281 0.5 -3.28125 C 0.5 -4.3125 0.773438 -5.132812 1.328125 -5.75 C 1.878906 -6.375 2.617188 -6.6875 3.546875 -6.6875 Z M 3.546875 -6.6875 "/>
</symbol>
</g>
</defs>
<g id="surface30197">
<rect x="0" y="0" width="300" height="300" style="fill:rgb(100%,100%,100%);fill-opacity:1;stroke:none;"/>
<path style="fill:none;stroke-width:1.2;stroke-linecap:butt;stroke-linejoin:miter;stroke:rgb(0%,0%,0%);stroke-opacity:1;stroke-miterlimit:10;" d="M 193.886719 187.109375 L 174.648438 185.75 "/>
<path style="fill:none;stroke-width:1.2;stroke-linecap:butt;stroke-linejoin:miter;stroke:rgb(0%,0%,0%);stroke-opacity:1;stroke-miterlimit:10;" d="M 204.683594 171.128906 L 193.886719 187.109375 "/>
<path style="fill:none;stroke-width:1;stroke-linecap:butt;stroke-linejoin:miter;stroke:rgb(0%,0%,0%);stroke-opacity:1;stroke-miterlimit:10;" d="M 166.207031 168.410156 L 166.207031 168.410156 M 167.03125 171.292969 L 167.96875 170.835938 M 167.855469 174.175781 L 169.730469 173.265625 M 168.679688 177.0625 L 171.492188 175.691406 M 169.503906 179.945312 L 173.253906 178.121094 M 170.328125 182.832031 L 175.015625 180.550781 M 171.152344 185.714844 L 176.777344 182.976562 M 171.589844 187.238281 L 177.707031 184.257812 "/>
<path style="fill:none;stroke-width:1.2;stroke-linecap:butt;stroke-linejoin:miter;stroke:rgb(0%,0%,0%);stroke-opacity:1;stroke-miterlimit:10;" d="M 166.207031 168.410156 L 153.800781 183.171875 "/>
<path style="fill:none;stroke-width:1.2;stroke-linecap:butt;stroke-linejoin:miter;stroke:rgb(0%,0%,0%);stroke-opacity:1;stroke-miterlimit:10;" d="M 166.207031 168.410156 L 177.003906 152.429688 "/>
<path style="fill:none;stroke-width:1.2;stroke-linecap:butt;stroke-linejoin:miter;stroke:rgb(0%,0%,0%);stroke-opacity:1;stroke-miterlimit:10;" d="M 156 152.046875 L 166.207031 168.410156 "/>
<path style="fill:none;stroke-width:1.2;stroke-linecap:butt;stroke-linejoin:miter;stroke:rgb(0%,0%,0%);stroke-opacity:1;stroke-miterlimit:10;" d="M 153.800781 183.171875 L 135.925781 175.933594 "/>
<path style="fill:none;stroke-width:1.2;stroke-linecap:butt;stroke-linejoin:miter;stroke:rgb(0%,0%,0%);stroke-opacity:1;stroke-miterlimit:10;" d="M 135.925781 175.933594 L 136.605469 166.316406 "/>
<path style="fill:none;stroke-width:1.2;stroke-linecap:butt;stroke-linejoin:miter;stroke:rgb(0%,0%,100%);stroke-opacity:1;stroke-miterlimit:10;" d="M 136.605469 166.316406 L 137.285156 156.695312 "/>
<path style="fill:none;stroke-width:1.2;stroke-linecap:butt;stroke-linejoin:miter;stroke:rgb(0%,0%,100%);stroke-opacity:1;stroke-miterlimit:10;" d="M 137.285156 156.695312 L 146.644531 154.371094 "/>
<path style="fill:none;stroke-width:1.2;stroke-linecap:butt;stroke-linejoin:miter;stroke:rgb(0%,0%,0%);stroke-opacity:1;stroke-miterlimit:10;" d="M 146.644531 154.371094 L 156 152.046875 "/>
<path style="fill:none;stroke-width:1.2;stroke-linecap:butt;stroke-linejoin:miter;stroke:rgb(0%,0%,100%);stroke-opacity:1;stroke-miterlimit:10;" d="M 137.285156 156.695312 L 129.902344 150.492188 "/>
<path style="fill:none;stroke-width:1.2;stroke-linecap:butt;stroke-linejoin:miter;stroke:rgb(0%,0%,0%);stroke-opacity:1;stroke-miterlimit:10;" d="M 129.902344 150.492188 L 122.523438 144.289062 "/>
<path style=" stroke:none;fill-rule:nonzero;fill:rgb(100%,100%,100%);fill-opacity:1;" d="M 134.285156 151.195312 L 141.285156 151.195312 L 141.285156 162.195312 L 134.285156 162.195312 Z M 134.285156 151.195312 "/>
<g style="fill:rgb(0%,0%,100%);fill-opacity:1;">
  <use xlink:href="#glyph0-1" x="134.285156" y="159.858398"/>
</g>
<path style="fill:none;stroke-width:1.2;stroke-linecap:butt;stroke-linejoin:miter;stroke:rgb(0%,0%,0%);stroke-opacity:1;stroke-miterlimit:10;" d="M 122.523438 144.289062 L 125.886719 125.300781 "/>
<path style="fill:none;stroke-width:1.2;stroke-linecap:butt;stroke-linejoin:miter;stroke:rgb(0%,0%,0%);stroke-opacity:1;stroke-miterlimit:10;" d="M 118.390625 141.597656 L 121.082031 126.40625 "/>
<path style="fill:none;stroke-width:1.2;stroke-linecap:butt;stroke-linejoin:miter;stroke:rgb(0%,0%,0%);stroke-opacity:1;stroke-miterlimit:10;" d="M 104.394531 150.871094 L 122.523438 144.289062 "/>
<path style="fill:none;stroke-width:1.2;stroke-linecap:butt;stroke-linejoin:miter;stroke:rgb(0%,0%,0%);stroke-opacity:1;stroke-miterlimit:10;" d="M 125.886719 125.300781 L 111.121094 112.890625 "/>
<path style="fill:none;stroke-width:1.2;stroke-linecap:butt;stroke-linejoin:miter;stroke:rgb(0%,0%,0%);stroke-opacity:1;stroke-miterlimit:10;" d="M 111.121094 112.890625 L 92.996094 119.472656 "/>
<path style="fill:none;stroke-width:1.2;stroke-linecap:butt;stroke-linejoin:miter;stroke:rgb(0%,0%,0%);stroke-opacity:1;stroke-miterlimit:10;" d="M 110.859375 117.816406 L 96.355469 123.078125 "/>
<path style="fill:none;stroke-width:1.2;stroke-linecap:butt;stroke-linejoin:miter;stroke:rgb(0%,0%,0%);stroke-opacity:1;stroke-miterlimit:10;" d="M 92.996094 119.472656 L 89.632812 138.460938 "/>
<path style="fill:none;stroke-width:1.2;stroke-linecap:butt;stroke-linejoin:miter;stroke:rgb(0%,0%,0%);stroke-opacity:1;stroke-miterlimit:10;" d="M 89.632812 138.460938 L 104.394531 150.871094 "/>
<path style="fill:none;stroke-width:1.2;stroke-linecap:butt;stroke-linejoin:miter;stroke:rgb(0%,0%,0%);stroke-opacity:1;stroke-miterlimit:10;" d="M 94.027344 136.230469 L 105.839844 146.15625 "/>
<path style="fill:none;stroke-width:1.2;stroke-linecap:butt;stroke-linejoin:miter;stroke:rgb(0%,0%,0%);stroke-opacity:1;stroke-miterlimit:10;" d="M 89.632812 138.460938 L 71.503906 145.042969 "/>
<path style="fill:none;stroke-width:1.2;stroke-linecap:butt;stroke-linejoin:miter;stroke:rgb(0%,0%,0%);stroke-opacity:1;stroke-miterlimit:10;" d="M 71.503906 145.042969 L 56.742188 132.636719 "/>
<path style="fill:none;stroke-width:1.2;stroke-linecap:butt;stroke-linejoin:miter;stroke:rgb(0%,0%,0%);stroke-opacity:1;stroke-miterlimit:10;" d="M 67.109375 147.277344 L 55.296875 137.351562 "/>
<path style="fill:none;stroke-width:1.2;stroke-linecap:butt;stroke-linejoin:miter;stroke:rgb(0%,0%,0%);stroke-opacity:1;stroke-miterlimit:10;" d="M 68.140625 164.035156 L 71.503906 145.042969 "/>
<path style="fill:none;stroke-width:1.2;stroke-linecap:butt;stroke-linejoin:miter;stroke:rgb(0%,0%,0%);stroke-opacity:1;stroke-miterlimit:10;" d="M 56.742188 132.636719 L 38.613281 139.21875 "/>
<path style="fill:none;stroke-width:1.2;stroke-linecap:butt;stroke-linejoin:miter;stroke:rgb(0%,0%,0%);stroke-opacity:1;stroke-miterlimit:10;" d="M 38.613281 139.21875 L 35.25 158.207031 "/>
<path style="fill:none;stroke-width:1.2;stroke-linecap:butt;stroke-linejoin:miter;stroke:rgb(0%,0%,0%);stroke-opacity:1;stroke-miterlimit:10;" d="M 42.746094 141.910156 L 40.054688 157.101562 "/>
<path style="fill:none;stroke-width:1.2;stroke-linecap:butt;stroke-linejoin:miter;stroke:rgb(0%,0%,0%);stroke-opacity:1;stroke-miterlimit:10;" d="M 35.25 158.207031 L 50.011719 170.617188 "/>
<path style="fill:none;stroke-width:1.2;stroke-linecap:butt;stroke-linejoin:miter;stroke:rgb(0%,0%,0%);stroke-opacity:1;stroke-miterlimit:10;" d="M 50.011719 170.617188 L 68.140625 164.035156 "/>
<path style="fill:none;stroke-width:1.2;stroke-linecap:butt;stroke-linejoin:miter;stroke:rgb(0%,0%,0%);stroke-opacity:1;stroke-miterlimit:10;" d="M 50.277344 165.691406 L 64.78125 160.425781 "/>
<path style="fill:none;stroke-width:1.2;stroke-linecap:butt;stroke-linejoin:miter;stroke:rgb(0%,0%,0%);stroke-opacity:1;stroke-miterlimit:10;" d="M 177.003906 152.429688 L 186.625 153.109375 "/>
<path style="fill:none;stroke-width:1.2;stroke-linecap:butt;stroke-linejoin:miter;stroke:rgb(0%,0%,100%);stroke-opacity:1;stroke-miterlimit:10;" d="M 186.625 153.109375 L 196.242188 153.789062 "/>
<path style="fill:none;stroke-width:1.2;stroke-linecap:butt;stroke-linejoin:miter;stroke:rgb(0%,0%,100%);stroke-opacity:1;stroke-miterlimit:10;" d="M 196.242188 153.789062 L 200.460938 162.460938 "/>
<path style="fill:none;stroke-width:1.2;stroke-linecap:butt;stroke-linejoin:miter;stroke:rgb(0%,0%,0%);stroke-opacity:1;stroke-miterlimit:10;" d="M 200.460938 162.460938 L 204.683594 171.128906 "/>
<path style="fill:none;stroke-width:1.2;stroke-linecap:butt;stroke-linejoin:miter;stroke:rgb(0%,0%,100%);stroke-opacity:1;stroke-miterlimit:10;" d="M 196.242188 153.789062 L 201.640625 145.800781 "/>
<path style="fill:none;stroke-width:1.2;stroke-linecap:butt;stroke-linejoin:miter;stroke:rgb(0%,0%,0%);stroke-opacity:1;stroke-miterlimit:10;" d="M 201.640625 145.800781 L 207.039062 137.808594 "/>
<path style=" stroke:none;fill-rule:nonzero;fill:rgb(100%,100%,100%);fill-opacity:1;" d="M 193.242188 148.289062 L 200.242188 148.289062 L 200.242188 159.289062 L 193.242188 159.289062 Z M 193.242188 148.289062 "/>
<g style="fill:rgb(0%,0%,100%);fill-opacity:1;">
  <use xlink:href="#glyph0-1" x="193.242188" y="156.952148"/>
</g>
<path style="fill:none;stroke-width:1.2;stroke-linecap:butt;stroke-linejoin:miter;stroke:rgb(0%,0%,0%);stroke-opacity:1;stroke-miterlimit:10;" d="M 209.078125 136.816406 L 204.859375 128.148438 "/>
<path style="fill:none;stroke-width:1.2;stroke-linecap:butt;stroke-linejoin:miter;stroke:rgb(100%,0%,0%);stroke-opacity:1;stroke-miterlimit:10;" d="M 204.859375 128.148438 L 200.636719 119.476562 "/>
<path style="fill:none;stroke-width:1.2;stroke-linecap:butt;stroke-linejoin:miter;stroke:rgb(0%,0%,0%);stroke-opacity:1;stroke-miterlimit:10;" d="M 205 138.800781 L 200.777344 130.132812 "/>
<path style="fill:none;stroke-width:1.2;stroke-linecap:butt;stroke-linejoin:miter;stroke:rgb(100%,0%,0%);stroke-opacity:1;stroke-miterlimit:10;" d="M 200.777344 130.132812 L 196.558594 121.460938 "/>
<path style="fill:none;stroke-width:1.2;stroke-linecap:butt;stroke-linejoin:miter;stroke:rgb(0%,0%,0%);stroke-opacity:1;stroke-miterlimit:10;" d="M 207.039062 137.808594 L 226.277344 139.167969 "/>
<path style=" stroke:none;fill-rule:nonzero;fill:rgb(100%,100%,100%);fill-opacity:1;" d="M 190.597656 114.96875 L 198.597656 114.96875 L 198.597656 125.96875 L 190.597656 125.96875 Z M 190.597656 114.96875 "/>
<g style="fill:rgb(100%,0%,0%);fill-opacity:1;">
  <use xlink:href="#glyph0-2" x="190.597656" y="123.631836"/>
</g>
<path style="fill:none;stroke-width:1.2;stroke-linecap:butt;stroke-linejoin:miter;stroke:rgb(0%,0%,0%);stroke-opacity:1;stroke-miterlimit:10;" d="M 226.277344 139.167969 L 230.496094 147.839844 "/>
<path style="fill:none;stroke-width:1.2;stroke-linecap:butt;stroke-linejoin:miter;stroke:rgb(0%,0%,100%);stroke-opacity:1;stroke-miterlimit:10;" d="M 230.496094 147.839844 L 234.714844 156.511719 "/>
<path style="fill:none;stroke-width:1.2;stroke-linecap:butt;stroke-linejoin:miter;stroke:rgb(0%,0%,0%);stroke-opacity:1;stroke-miterlimit:10;" d="M 231.199219 138.917969 L 234.574219 145.855469 "/>
<path style="fill:none;stroke-width:1.2;stroke-linecap:butt;stroke-linejoin:miter;stroke:rgb(0%,0%,100%);stroke-opacity:1;stroke-miterlimit:10;" d="M 234.574219 145.855469 L 237.953125 152.789062 "/>
<path style="fill:none;stroke-width:1.2;stroke-linecap:butt;stroke-linejoin:miter;stroke:rgb(0%,0%,0%);stroke-opacity:1;stroke-miterlimit:10;" d="M 237.074219 123.191406 L 226.277344 139.167969 "/>
<path style="fill:none;stroke-width:1.2;stroke-linecap:butt;stroke-linejoin:miter;stroke:rgb(0%,0%,100%);stroke-opacity:1;stroke-miterlimit:10;" d="M 234.714844 156.511719 L 244.335938 157.191406 "/>
<path style="fill:none;stroke-width:1.2;stroke-linecap:butt;stroke-linejoin:miter;stroke:rgb(0%,0%,0%);stroke-opacity:1;stroke-miterlimit:10;" d="M 244.335938 157.191406 L 253.953125 157.871094 "/>
<path style=" stroke:none;fill-rule:nonzero;fill:rgb(100%,100%,100%);fill-opacity:1;" d="M 231.714844 151.011719 L 238.714844 151.011719 L 238.714844 162.011719 L 231.714844 162.011719 Z M 231.714844 151.011719 "/>
<g style="fill:rgb(0%,0%,100%);fill-opacity:1;">
  <use xlink:href="#glyph0-1" x="231.714844" y="159.674805"/>
</g>
<path style="fill:none;stroke-width:1.2;stroke-linecap:butt;stroke-linejoin:miter;stroke:rgb(0%,0%,0%);stroke-opacity:1;stroke-miterlimit:10;" d="M 253.953125 157.871094 L 264.75 141.890625 "/>
<path style="fill:none;stroke-width:1.2;stroke-linecap:butt;stroke-linejoin:miter;stroke:rgb(0%,0%,0%);stroke-opacity:1;stroke-miterlimit:10;" d="M 251.273438 153.730469 L 259.910156 140.949219 "/>
<path style="fill:none;stroke-width:1.2;stroke-linecap:butt;stroke-linejoin:miter;stroke:rgb(0%,0%,0%);stroke-opacity:1;stroke-miterlimit:10;" d="M 264.75 141.890625 L 260.53125 133.21875 "/>
<path style="fill:none;stroke-width:1.2;stroke-linecap:butt;stroke-linejoin:miter;stroke:rgb(0%,0%,100%);stroke-opacity:1;stroke-miterlimit:10;" d="M 260.53125 133.21875 L 256.308594 124.550781 "/>
<path style="fill:none;stroke-width:1.2;stroke-linecap:butt;stroke-linejoin:miter;stroke:rgb(0%,0%,100%);stroke-opacity:1;stroke-miterlimit:10;" d="M 256.308594 124.550781 L 246.691406 123.871094 "/>
<path style="fill:none;stroke-width:1.2;stroke-linecap:butt;stroke-linejoin:miter;stroke:rgb(0%,0%,0%);stroke-opacity:1;stroke-miterlimit:10;" d="M 246.691406 123.871094 L 237.074219 123.191406 "/>
<path style="fill:none;stroke-width:1.2;stroke-linecap:butt;stroke-linejoin:miter;stroke:rgb(0%,0%,100%);stroke-opacity:1;stroke-miterlimit:10;" d="M 254.066406 128.941406 L 246.371094 128.398438 "/>
<path style="fill:none;stroke-width:1.2;stroke-linecap:butt;stroke-linejoin:miter;stroke:rgb(0%,0%,0%);stroke-opacity:1;stroke-miterlimit:10;" d="M 246.371094 128.398438 L 238.675781 127.851562 "/>
<path style=" stroke:none;fill-rule:nonzero;fill:rgb(100%,100%,100%);fill-opacity:1;" d="M 253.308594 119.050781 L 260.308594 119.050781 L 260.308594 130.050781 L 253.308594 130.050781 Z M 253.308594 119.050781 "/>
<g style="fill:rgb(0%,0%,100%);fill-opacity:1;">
  <use xlink:href="#glyph0-1" x="253.308594" y="127.713867"/>
</g>
</g>
</svg>

<svg xmlns="http://www.w3.org/2000/svg" xmlns:xlink="http://www.w3.org/1999/xlink" width="300pt" height="300pt" viewBox="0 0 300 300"><defs><symbol overflow="visible"><path d="M.453 1.594v-7.938h4.5v7.938zm.5-.5h3.5v-6.938h-3.5zm0 0"/></symbol><symbol overflow="visible" id="a"><path d="M.89-6.563H2.08l2.906 5.485v-5.484h.86V0H4.656L1.75-5.484V0H.89zm0 0"/></symbol><symbol overflow="visible" id="b"><path d="M3.547-5.953c-.65 0-1.164.242-1.547.72-.375.48-.563 1.13-.563 1.952 0 .835.188 1.49.563 1.967.383.48.898.72 1.547.72.644 0 1.156-.24 1.53-.72.376-.476.564-1.132.564-1.968 0-.822-.187-1.474-.562-1.954-.375-.477-.887-.72-1.53-.72zm0-.734c.914 0 1.648.312 2.203.937.55.617.828 1.438.828 2.47 0 1.042-.277 1.87-.828 2.483-.555.617-1.29.922-2.203.922-.93 0-1.668-.305-2.22-.922C.774-1.41.5-2.237.5-3.28c0-1.033.273-1.853.828-2.47.55-.625 1.29-.938 2.22-.938zm0 0"/></symbol></defs><g><path fill="#fff" d="M0 0h300v300H0z"/><path d="M193.887 187.11l-19.24-1.36M204.684 171.13l-10.797 15.98" stroke-width="1.2" stroke="#000" stroke-miterlimit="10" fill="none"/><path d="M166.207 168.41m.824 2.883l.94-.457m-.115 3.34l1.875-.91m-1.05 3.797l2.812-1.372m-1.988 4.255l3.75-1.824m-2.926 4.712l4.688-2.28m-3.864 5.163l5.625-2.738m-5.187 4.26l6.117-2.98" stroke="#000" stroke-miterlimit="10" fill="none"/><path d="M166.207 168.41L153.8 183.172M166.207 168.41l10.797-15.98M156 152.047l10.207 16.363M153.8 183.172l-17.874-7.238M135.926 175.934l.68-9.618" stroke-width="1.2" stroke="#000" stroke-miterlimit="10" fill="none"/><path d="M136.605 166.316l.68-9.62M137.285 156.695l9.36-2.324" stroke-width="1.2" stroke="#00f" stroke-miterlimit="10" fill="none"/><path d="M146.645 154.37l9.355-2.323" stroke-width="1.2" stroke="#000" stroke-miterlimit="10" fill="none"/><path d="M137.285 156.695l-7.383-6.203" stroke-width="1.2" stroke="#00f" stroke-miterlimit="10" fill="none"/><path d="M129.902 150.492l-7.38-6.203" stroke-width="1.2" stroke="#000" stroke-miterlimit="10" fill="none"/><path d="M134.285 151.195h7v11h-7zm0 0" fill="#fff"/><use xlink:href="#a" x="134.285" y="159.858" fill="#00f"/><path d="M122.523 144.29l3.364-18.99M118.39 141.598l2.692-15.192M104.395 150.87l18.128-6.58M125.887 125.3l-14.766-12.41M111.12 112.89l-18.124 6.583M110.86 117.816l-14.505 5.262M92.996 119.473l-3.363 18.988M89.633 138.46l14.762 12.41M94.027 136.23l11.813 9.926M89.633 138.46l-18.13 6.583M71.504 145.043l-14.762-12.406M67.11 147.277l-11.813-9.925M68.14 164.035l3.364-18.992M56.742 132.637l-18.13 6.582M38.613 139.22l-3.363 18.987M42.746 141.91l-2.69 15.192M35.25 158.207l14.762 12.41M50.012 170.617l18.13-6.582M50.277 165.69l14.504-5.264M177.004 152.43l9.62.68" stroke-width="1.2" stroke="#000" stroke-miterlimit="10" fill="none"/><path d="M186.625 153.11l9.617.68M196.242 153.79l4.22 8.67" stroke-width="1.2" stroke="#00f" stroke-miterlimit="10" fill="none"/><path d="M200.46 162.46l4.224 8.67" stroke-width="1.2" stroke="#000" stroke-miterlimit="10" fill="none"/><path d="M196.242 153.79l5.4-7.99" stroke-width="1.2" stroke="#00f" stroke-miterlimit="10" fill="none"/><path d="M201.64 145.8l5.4-7.99" stroke-width="1.2" stroke="#000" stroke-miterlimit="10" fill="none"/><path d="M193.242 148.29h7v11h-7zm0 0" fill="#fff"/><use xlink:href="#a" x="193.242" y="156.952" fill="#00f"/><path d="M209.078 136.816l-4.22-8.668" stroke-width="1.2" stroke="#000" stroke-miterlimit="10" fill="none"/><path d="M204.86 128.148l-4.223-8.67" stroke-width="1.2" stroke="#f00" stroke-miterlimit="10" fill="none"/><path d="M205 138.8l-4.223-8.667" stroke-width="1.2" stroke="#000" stroke-miterlimit="10" fill="none"/><path d="M200.777 130.133l-4.218-8.672" stroke-width="1.2" stroke="#f00" stroke-miterlimit="10" fill="none"/><path d="M207.04 137.81l19.237 1.358" stroke-width="1.2" stroke="#000" stroke-miterlimit="10" fill="none"/><path d="M190.598 114.97h8v11h-8zm0 0" fill="#fff"/><use xlink:href="#b" x="190.598" y="123.632" fill="#f00"/><path d="M226.277 139.168l4.22 8.672" stroke-width="1.2" stroke="#000" stroke-miterlimit="10" fill="none"/><path d="M230.496 147.84l4.22 8.672" stroke-width="1.2" stroke="#00f" stroke-miterlimit="10" fill="none"/><path d="M231.2 138.918l3.374 6.937" stroke-width="1.2" stroke="#000" stroke-miterlimit="10" fill="none"/><path d="M234.574 145.855l3.38 6.934" stroke-width="1.2" stroke="#00f" stroke-miterlimit="10" fill="none"/><path d="M237.074 123.19l-10.797 15.978" stroke-width="1.2" stroke="#000" stroke-miterlimit="10" fill="none"/><path d="M234.715 156.512l9.62.68" stroke-width="1.2" stroke="#00f" stroke-miterlimit="10" fill="none"/><path d="M244.336 157.19l9.617.68" stroke-width="1.2" stroke="#000" stroke-miterlimit="10" fill="none"/><path d="M231.715 151.012h7v11h-7zm0 0" fill="#fff"/><use xlink:href="#a" x="231.715" y="159.675" fill="#00f"/><path d="M253.953 157.87l10.797-15.98M251.273 153.73l8.637-12.78M264.75 141.89l-4.22-8.67" stroke-width="1.2" stroke="#000" stroke-miterlimit="10" fill="none"/><path d="M260.53 133.22l-4.22-8.67M256.31 124.55l-9.62-.68" stroke-width="1.2" stroke="#00f" stroke-miterlimit="10" fill="none"/><path d="M246.69 123.87l-9.616-.68" stroke-width="1.2" stroke="#000" stroke-miterlimit="10" fill="none"/><path d="M254.066 128.94l-7.695-.542" stroke-width="1.2" stroke="#00f" stroke-miterlimit="10" fill="none"/><path d="M246.37 128.398l-7.694-.546" stroke-width="1.2" stroke="#000" stroke-miterlimit="10" fill="none"/><path d="M253.31 119.05h7v11h-7zm0 0" fill="#fff"/><use xlink:href="#a" x="253.309" y="127.714" fill="#00f"/></g></svg>
